static/logos/theNorthFace-wordmark-white.svg

<svg width="51" height="23" viewBox="0 0 51 23" fill="none" xmlns="http://www.w3.org/2000/svg">
<g clip-path="url(#clip0_1204_238)">
<mask id="mask0_1204_238" style="mask-type:luminance" maskUnits="userSpaceOnUse" x="0" y="0" width="51" height="23">
<path d="M50.5 0H0.5V23H50.5V0Z" fill="white"/>
</mask>
<g mask="url(#mask0_1204_238)">
<path fill-rule="evenodd" clip-rule="evenodd" d="M33.1148 1.54053V0.273438H28.0458V7.23048H33.1148V6.08293H29.4563V4.19424H32.6602V2.95106H29.4563V1.54053H33.1148ZM31.7043 7.9477V10.6253H28.9304V7.9477H27.4966V14.8812H28.9304V11.7729H31.7043V14.8812H33.1148V7.9477H31.7043ZM33.1148 16.8409V15.5984H28.0458V22.6504H33.1148V21.384H29.4563V19.5189H32.6602V18.3716H29.4563V16.8409H33.1148ZM27.2333 0.273438H25.8227V2.95106H23.0495V0.273438H21.639V7.23048H23.0495V4.12252H25.8227V7.23048H27.2333V0.273438ZM15.5665 0.273438V1.54053H17.7181V7.23048H19.1287V1.54053H21.2803V0.273438H15.5665ZM11.1197 7.75644C8.89633 7.75644 7.72487 9.02353 7.72487 11.4143C7.72487 13.9245 8.89633 15.1677 11.1197 15.1677C13.3431 15.1677 14.4907 13.9245 14.4907 11.4143C14.4907 9.02353 13.3431 7.75644 11.1197 7.75644ZM9.25494 11.4143C9.25494 9.81247 9.87653 9.02353 11.1197 9.02353C12.4585 9.02353 13.0801 9.81247 13.0801 11.4143C13.0801 13.112 12.4585 13.9245 11.1197 13.9245C9.87653 13.9245 9.25494 13.112 9.25494 11.4143ZM5.69275 7.9477V12.8487L2.91949 7.9477H1.41333V14.8812H2.75214V10.0037L5.59712 14.8812H7.10328V7.9477H5.69275ZM12.2673 18.4669V16.8409H15.8295V15.5984H10.8567V22.6504H12.2673V19.7101H15.3991V18.4669H12.2673ZM26.9706 9.19088V7.9477H21.2803V9.19088H23.4081V14.8812H24.8425V9.19088H26.9706ZM18.1485 12.2274C18.6027 12.2274 18.9613 12.2988 19.1287 12.4901L19.3917 14.8812H20.9935V14.7138C20.8261 14.6179 20.7305 14.1879 20.7305 13.3747C20.7305 12.3948 20.3719 11.8685 19.8459 11.6055C20.5631 11.3186 20.9217 10.7927 20.9217 9.9081C20.9217 8.66492 20.2045 7.9477 18.6984 7.9477H15.2079V14.8812H16.6423V12.2274H18.1485ZM16.6423 11.0557V9.19088H18.4115C19.1287 9.19088 19.4873 9.45386 19.4873 10.0755C19.4873 10.697 19.1287 11.0557 18.3397 11.0557H16.6423ZM19.1287 15.5984H17.4313L14.9449 22.6504H16.4511L17.0009 21.1207H19.5829L20.0133 22.6504H21.5433L19.1287 15.5984ZM18.2441 17.1995L19.1287 19.9734H17.3595L18.2441 17.1995ZM26.0861 17.9167H27.4966C27.4245 17.2955 27.2333 16.7695 26.8026 16.3149C26.1814 15.789 25.4641 15.4304 24.4839 15.4304C23.5037 15.4304 22.7865 15.789 22.1649 16.4109C21.639 17.0322 21.2803 17.9167 21.2803 19.0885C21.2803 21.5749 22.3323 22.8174 24.3883 22.8174C26.1814 22.8174 27.1612 21.9328 27.4966 20.2358H26.0861C25.8948 21.0483 25.2729 21.4789 24.4839 21.4789C23.3125 21.4789 22.7865 20.6903 22.7865 19.1599C22.7865 17.4867 23.3125 16.6736 24.4839 16.6736C25.2729 16.6736 25.7274 17.1281 26.0861 17.9167ZM8.37037 22.5551C8.60945 22.5551 8.8007 22.4591 8.94448 22.3399C9.06402 22.1965 9.15931 22.0052 9.15931 21.7426C9.15931 21.4554 9.06368 21.2641 8.94448 21.1446C8.80104 21.0254 8.60978 20.9533 8.37037 20.9533H8.34646C8.05958 20.9533 7.86832 21.0254 7.74878 21.1446C7.62957 21.2638 7.55752 21.4554 7.55752 21.7426V21.7658C7.55752 22.0052 7.62924 22.1965 7.74878 22.3399C7.86832 22.4591 8.05991 22.5551 8.34646 22.5551H8.37037ZM8.34646 22.7464C8.01176 22.7464 7.77269 22.6272 7.60534 22.4591C7.43798 22.2918 7.36626 22.053 7.36626 21.7658V21.7426C7.36626 21.4072 7.43798 21.1685 7.60534 21.0015C7.77269 20.8344 8.01176 20.762 8.34646 20.762H8.37037C8.65726 20.762 8.89633 20.8341 9.06369 21.0015C9.23104 21.1688 9.35057 21.4075 9.35057 21.7426C9.35057 22.0534 9.23104 22.2918 9.06369 22.4591C8.973 22.5507 8.86499 22.6232 8.74594 22.6725C8.6269 22.7219 8.49922 22.7469 8.37037 22.7464H8.34646ZM8.44209 21.6466H8.466C8.56163 21.6466 8.60945 21.5985 8.60945 21.4793V21.4554C8.60945 21.4554 8.58554 21.4554 8.58554 21.4315C8.56163 21.4075 8.51382 21.4075 8.44209 21.4075H8.17911V21.6469L8.44209 21.6466ZM8.60945 21.814L8.8007 22.0534C8.82461 22.1009 8.8007 22.1487 8.7768 22.1726C8.72898 22.2207 8.65726 22.1965 8.63335 22.1726L8.39428 21.8379H8.17911V22.1005C8.17911 22.1487 8.1313 22.1965 8.08348 22.1965C8.03567 22.1965 7.98785 22.1483 7.98785 22.1005V21.3119C7.98785 21.2638 8.03567 21.2166 8.08348 21.2166H8.466C8.56163 21.2166 8.65726 21.2399 8.70507 21.288C8.72898 21.3119 8.75289 21.3119 8.75289 21.3362C8.8007 21.3843 8.8007 21.4314 8.8007 21.4796C8.8007 21.6705 8.75289 21.7658 8.60945 21.814ZM34.0947 0.273438C38.5418 0.273438 42.3905 1.89914 45.4985 5.00709C48.7021 8.21068 50.3042 12.0359 50.3042 16.5062V22.6504H43.8014V16.3149C43.8014 13.8292 42.9168 11.6772 41.1238 9.9081C40.6931 9.45386 40.2392 9.09525 39.7133 8.73664C38.2788 7.75644 36.5814 7.32611 34.8122 7.32611H34.095L34.0947 0.273438ZM43.1792 22.6504H38.1108V17.7494C38.1108 16.9369 37.8481 16.3149 37.2983 15.789C36.7723 15.2398 36.0551 14.9765 35.3379 14.9765H34.0947V7.9477H34.8119C36.6764 7.9477 38.2781 8.47366 39.7129 9.54949C40.0715 9.71684 40.4301 10.0755 40.6928 10.3384C42.3905 12.0362 43.1792 13.9966 43.1792 16.3153V22.6504ZM37.4895 22.6504H34.0944V15.5984H35.3379C35.8877 15.5984 36.4137 15.789 36.8676 16.2196C37.2262 16.5783 37.4895 17.1281 37.4895 17.7494V22.6504Z" fill="white"/>
</g>
</g>
<defs>
<clipPath id="clip0_1204_238">
<rect width="50" height="23" fill="white" transform="translate(0.5)"/>
</clipPath>
</defs>
</svg>

<svg xmlns="http://www.w3.org/2000/svg" width="141.913" height="64" fill="none" viewBox="0 0 51 23"><g clip-path="url(#a)"><mask id="b" width="51" height="23" x="0" y="0" maskUnits="userSpaceOnUse" style="mask-type:luminance"><path fill="#fff" d="M50.5 0H.5v23h50z"/></mask><g mask="url(#b)"><path fill="#fff" fill-rule="evenodd" d="M33.115 1.54V.274h-5.07V7.23h5.07V6.083h-3.659V4.194h3.204V2.951h-3.204v-1.41zm-1.41 6.408v2.677H28.93V7.948h-1.433v6.933h1.433v-3.108h2.774v3.108h1.41V7.948zm1.41 8.893v-1.243h-5.07v7.052h5.07v-1.266h-3.659v-1.865h3.204v-1.147h-3.204V16.84zM27.233.273h-1.41v2.678h-2.774V.273h-1.41V7.23h1.41V4.123h2.774V7.23h1.41zm-11.667 0v1.268h2.152v5.69h1.41V1.54h2.152V.273zM11.12 7.756c-2.224 0-3.395 1.268-3.395 3.658 0 2.51 1.171 3.754 3.395 3.754 2.223 0 3.37-1.243 3.37-3.754 0-2.39-1.147-3.658-3.37-3.658m-1.865 3.658c0-1.602.622-2.39 1.865-2.39 1.339 0 1.96.788 1.96 2.39 0 1.698-.621 2.51-1.96 2.51-1.243 0-1.865-.812-1.865-2.51M5.693 7.948v4.9l-2.774-4.9H1.413v6.933h1.34v-4.877l2.844 4.877h1.506V7.948zm6.574 10.519V16.84h3.563v-1.243h-4.973v7.052h1.41v-2.94H15.4v-1.243zM26.971 9.19V7.948h-5.69V9.19h2.127v5.69h1.435v-5.69zm-8.823 3.036c.455 0 .813.072.98.263l.264 2.391h1.602v-.167c-.168-.096-.264-.526-.264-1.34 0-.98-.358-1.506-.884-1.769.717-.286 1.076-.812 1.076-1.697 0-1.243-.718-1.96-2.224-1.96h-3.49v6.933h1.434v-2.654zm-1.506-1.171V9.19h1.77c.717 0 1.075.263 1.075.884 0 .622-.358.98-1.147.98zm2.487 4.542H17.43l-2.486 7.052h1.506l.55-1.53h2.582l.43 1.53h1.53zm-.885 1.601.885 2.774h-1.77zm7.842.718h1.41c-.072-.622-.263-1.148-.693-1.602-.622-.526-1.339-.885-2.32-.885s-1.697.359-2.318.98c-.526.622-.885 1.507-.885 2.678 0 2.487 1.052 3.73 3.108 3.73 1.793 0 2.773-.885 3.109-2.582h-1.41c-.192.812-.814 1.243-1.603 1.243-1.172 0-1.698-.789-1.698-2.32 0-1.672.526-2.485 1.698-2.485.789 0 1.243.454 1.602 1.243M8.37 22.555c.24 0 .43-.096.574-.215a.9.9 0 0 0 .215-.597c0-.288-.095-.479-.215-.598a.87.87 0 0 0-.574-.192h-.024c-.286 0-.478.072-.597.192-.12.119-.191.31-.191.598v.023c0 .24.071.43.19.574.12.12.312.215.598.215zm-.024.191c-.334 0-.573-.119-.74-.287s-.24-.406-.24-.693v-.023c0-.336.072-.574.24-.741s.406-.24.74-.24h.024c.287 0 .526.072.694.24s.287.406.287.74a.99.99 0 0 1-.605.93 1 1 0 0 1-.376.074zm.096-1.1h.024c.096 0 .143-.047.143-.167v-.024s-.023 0-.023-.023c-.024-.024-.072-.024-.144-.024H8.18v.239zm.167.168.192.24c.024.047 0 .095-.024.119-.048.048-.12.024-.144 0l-.239-.335H8.18v.262c0 .049-.048.096-.096.096-.047 0-.095-.048-.095-.096v-.788c0-.048.048-.095.095-.095h.383c.096 0 .191.023.24.071.023.024.047.024.047.048.048.048.048.095.048.144 0 .19-.048.286-.192.334M34.095.274c4.447 0 8.296 1.625 11.404 4.733 3.203 3.204 4.805 7.029 4.805 11.5v6.143h-6.503v-6.335c0-2.486-.884-4.638-2.677-6.407a8.4 8.4 0 0 0-1.41-1.171c-1.435-.98-3.133-1.41-4.902-1.41h-.717zm9.084 22.376h-5.068v-4.9c0-.813-.263-1.435-.813-1.961-.526-.55-1.243-.812-1.96-.812h-1.243v-7.03h.717c1.864 0 3.466.527 4.9 1.602.36.168.718.527.98.79 1.699 1.697 2.487 3.658 2.487 5.976zm-5.69 0h-3.395v-7.052h1.244c.55 0 1.076.191 1.53.622.358.358.621.908.621 1.53z" clip-rule="evenodd"/></g></g><defs><clipPath id="a"><path fill="#fff" d="M.5 0h50v23H.5z"/></clipPath></defs></svg>
